X:1
T:Flop Eared Mule
L:1/4
M:4/4
I:linebreak $
K:D
V:1 treble
V:1
"D" f f d d | A/B/A/F/ D D |"A7" E/D/E/F/ G E |"D" D/E/F/G/ A A |$
"D" f f d d | A/B/A/F/ D D |"A7"  E/D/E/F/ G E | "D"D F D2 ::[K:A]$
 "A"e c e c | e/f/e/c/ A A |"E7" B/A/B/c/ d B |"A" A/B/c/d/ e e |$
 "A"e c e c |  e/f/e/c/ A A |"E7" B/A/B/c/ d B |"A" A c A2 :|
